public/smartx-logo-horizontal.svg

<svg fill="none" height="32" viewBox="0 0 141 32" width="141" xmlns="http://www.w3.org/2000/svg"><g clip-rule="evenodd" fill-rule="evenodd"><path d="m34.4242 0-34.4242 19.9434v7.9777l6.88466 3.9887 34.42424-19.9436v-7.97771z" fill="#0096ff"/><path d="m6.8849 0-6.8849 3.98849v7.97771l6.0242 3.4899 13.7698-7.97727z" fill="#25c764"/><path d="m21.515 24.4311 12.9091 7.4788 6.8847-3.989v-7.9772l-6.0242-3.4901z" fill="#25c764"/><path d="m55.4483 9.13198c0 .72872.673 1.13352 1.9643 1.16072 2.6092.0812 5.7569.6209 5.7833 4.2919.0271 2.1597-1.5871 4.4814-5.8104 4.4814-1.9638 0-3.9814-.3778-6.2413-2.2678l1.6679-2.7533c1.6413 1.3496 3.2283 1.6465 4.6272 1.6737 1.1301.0268 2.0176-.432 1.9909-1.134 0-.6208-.4576-1.1333-2.2602-1.1872-2.4745-.1084-5.5684-1.134-5.5684-4.26542 0-3.02325 2.8518-4.29236 5.7302-4.29236 2.0447 0 3.6855.51294 5.0841 1.72764l-1.91 2.42962c-.9955-.70199-1.9365-.97147-3.1475-.97147-1.2642 0-1.9101.45853-1.9101 1.10657zm20.5546-1.72768c1.1838-1.8088 2.4479-2.51078 4.4117-2.51078 2.7709 0 5.2996 1.40421 5.2996 6.37088v7.2886h-3.901v-7.2075c0-1.67365-.4569-2.78046-2.0173-2.78046-1.5335 0-2.4481 1.32235-2.4481 2.83446v7.1535h-3.8199v-7.1535c0-1.75486-.6991-2.91561-2.2869-2.91561-1.5332 0-2.3941 1.43095-2.3941 2.94231v3.1813 3.9455h-3.8739v-3.9455-9.38984h3.3896.4843v1.20108c.8632-1.18843 2.2405-1.49801 3.2821-1.49801 1.4524 0 3.013.53967 3.8739 2.48357zm31.7211-2.15946v1.44145c.888-1.2419 2.099-1.76559 3.578-1.76559 1.265 0 2.314.37809 3.255 1.2147l-1.614 3.07719c-.646-.45853-1.318-.67478-2.125-.67478-1.668 0-3.094 1.08007-3.094 3.07739v6.9378h-3.874v-13.30816h3.605zm13.587 8.31426c0 1.4035.78 1.7815 1.506 1.7815.458 0 1.184-.1078 1.614-.3241l.888 3.2397c-.968.3781-1.749.5397-2.798.5937-2.878.1351-5.057-1.1333-5.057-5.2908v-5.02136h-2.367v-3.23902h2.367v-1.48275l3.874-2.24273v3.72548h3.363v3.23902h-3.39zm-30.4555-1.6738c0 2.2134 1.56 3.5093 3.4972 3.5093 2.1786 0 3.5237-1.7005 3.5237-3.3742 0-1.9166-1.2105-3.67149-3.5237-3.67149-1.9372 0-3.4972 1.32282-3.4972 3.53639zm7.0209-5.12893v-1.53883h.1346 3.632v13.33556h-3.4973-.2693v-1.6044c-.907 1.3483-2.7669 1.8749-4.0352 1.9011-3.9811.0272-6.8595-2.5642-6.8595-6.9645 0-4.42694 3.0397-7.0184 6.9671-6.96445 1.6679 0 3.2285.64756 3.9276 1.83552zm37.4306 4.97843 4.755 6.8183h-4.627l-2.438-3.4962-2.431 3.4962h-4.653l4.761-6.8279-4.519-6.48039h4.626l2.206 3.16347 2.207-3.16347h4.626zm-78.4639 11.3788-1.3653 1.7248h-.177l-1.3204-1.7372v3.1004h-.9861v-4.4386h1.1311l1.2894 1.7058 1.2955-1.7058h1.1185v4.4386h-.9857zm5.8701 1.4455.7642-1.8004.7586 1.8004zm-.3732.8753h2.2687l.3223.7612h1.0681l-1.9843-4.4392h-1.0742l-1.9843 4.4392h1.0614zm10.4386-3.6529-1.7949 2.1313 1.953 2.2256v.0571h-1.1883l-1.6369-1.8958v1.8958h-.9858v-4.4393h.9858v1.8333l1.4728-1.8333h1.1943zm3.2593 4.414h3.3685v-.9131h-2.4015v-.8941h2.1804v-.8689h-2.1804v-.8559h2.3133v-.907h-3.2803zm10.9596-4.439h.9795v4.439h-.9795zm4.237.8817h1.3464v3.5573h.9793v-3.5573h1.3462v-.8817h-3.6719zm13.5315.19c-.247-.2602-.677-.3738-1.024-.3738-.436 0-.79.1838-.79.4881 0 .4058.385.4815.954.5325.872.0764 1.7.412 1.7 1.4396 0 .9893-.91 1.4204-1.864 1.4266-.765.0067-1.561-.2914-1.934-.913l.588-.6151c.341.4373.903.628 1.352.628.524 0 .885-.2098.885-.5265.006-.3745-.291-.5454-.891-.5958-.935-.0893-1.769-.3234-1.757-1.3701.007-.8812.841-1.351 1.751-1.351.682 0 1.194.1526 1.649.6851zm5.154-1.0717h-.979v4.439h.979zm7.492 1.3571-1.365 1.7248h-.177l-1.321-1.7372v3.1004h-.986v-4.4386h1.131l1.29 1.7058 1.295-1.7058h1.118v4.4386h-.985zm6.717.9193h-1.1v-1.3377h1.1c.468 0 .708.3168.708.6722 0 .3549-.234.6655-.708.6655zm-1.1 2.1627v-1.2557h1.1c1.125-.0124 1.694-.7042 1.694-1.5916 0-.8559-.563-1.5918-1.694-1.5918h-2.086v4.4391zm7.077-4.4391v3.532h2.211v.907h-3.197v-4.439zm5.464 4.439h3.369v-.9131h-2.402v-.8941h2.18v-.8689h-2.18v-.8559h2.313v-.907h-3.28z" fill="#212934"/></g></svg>

<svg width="141" height="32" viewBox="0 0 141 32" fill="none" xmlns="http://www.w3.org/2000/svg">
<path fill-rule="evenodd" clip-rule="evenodd" d="M34.4242 0L0 19.9434V27.9211L6.88466 31.9098L41.3089 11.9662V3.98849L34.4242 0Z" fill="#0096FF"/>
<path fill-rule="evenodd" clip-rule="evenodd" d="M6.8849 0L0 3.98849V11.9662L6.0242 15.4561L19.794 7.47883L6.8849 0Z" fill="#25C764"/>
<path fill-rule="evenodd" clip-rule="evenodd" d="M21.515 24.4311L34.4241 31.9099L41.3088 27.9209V19.9437L35.2846 16.4536L21.515 24.4311Z" fill="#25C764"/>
<path fill-rule="evenodd" clip-rule="evenodd" d="M55.4483 9.13198C55.4483 9.8607 56.1213 10.2655 57.4126 10.2927C60.0218 10.3739 63.1695 10.9136 63.1959 14.5846C63.223 16.7443 61.6088 19.066 57.3855 19.066C55.4217 19.066 53.4041 18.6882 51.1442 16.7982L52.8121 14.0449C54.4534 15.3945 56.0404 15.6914 57.4393 15.7186C58.5694 15.7454 59.4569 15.2866 59.4302 14.5846C59.4302 13.9638 58.9726 13.4513 57.17 13.3974C54.6955 13.289 51.6016 12.2634 51.6016 9.13198C51.6016 6.10873 54.4534 4.83962 57.3318 4.83962C59.3765 4.83962 61.0173 5.35256 62.4159 6.56726L60.5059 8.99688C59.5104 8.29489 58.5694 8.02541 57.3584 8.02541C56.0942 8.02541 55.4483 8.48394 55.4483 9.13198ZM76.0029 7.4043C77.1867 5.5955 78.4508 4.89352 80.4146 4.89352C83.1855 4.89352 85.7142 6.29773 85.7142 11.2644V18.553H81.8132V11.3455C81.8132 9.67185 81.3563 8.56504 79.7959 8.56504C78.2624 8.56504 77.3478 9.88739 77.3478 11.3995V18.553H73.5279V11.3995C73.5279 9.64464 72.8288 8.48389 71.241 8.48389C69.7078 8.48389 68.8469 9.91484 68.8469 11.4262V14.6075V18.553H64.973V14.6075V5.21766H68.3626H68.8469V6.41874C69.7101 5.23031 71.0874 4.92073 72.129 4.92073C73.5814 4.92073 75.142 5.4604 76.0029 7.4043ZM107.724 5.24484V6.68629C108.612 5.44439 109.823 4.9207 111.302 4.9207C112.567 4.9207 113.616 5.29879 114.557 6.1354L112.943 9.21259C112.297 8.75406 111.625 8.53781 110.818 8.53781C109.15 8.53781 107.724 9.61788 107.724 11.6152V18.553H103.85V5.24484H107.455H107.724ZM121.311 13.5591C121.311 14.9626 122.091 15.3406 122.817 15.3406C123.275 15.3406 124.001 15.2328 124.431 15.0165L125.319 18.2562C124.351 18.6343 123.57 18.7959 122.521 18.8499C119.643 18.985 117.464 17.7166 117.464 13.5591V8.53774H115.097V5.29872H117.464V3.81597L121.338 1.57324V5.29872H124.701V8.53774H121.311V13.5591ZM90.8555 11.8853C90.8555 14.0987 92.4155 15.3946 94.3527 15.3946C96.5313 15.3946 97.8764 13.6941 97.8764 12.0204C97.8764 10.1038 96.6659 8.34891 94.3527 8.34891C92.4155 8.34891 90.8555 9.67173 90.8555 11.8853ZM97.8764 6.75637V5.21754H98.011H101.643V18.5531H98.1457H97.8764V16.9487C96.9694 18.297 95.1095 18.8236 93.8412 18.8498C89.8601 18.877 86.9817 16.2856 86.9817 11.8853C86.9817 7.45836 90.0214 4.8669 93.9488 4.92085C95.6167 4.92085 97.1773 5.56841 97.8764 6.75637ZM135.307 11.7348L140.062 18.5531H135.435L132.997 15.0569L130.566 18.5531H125.913L130.674 11.7252L126.155 5.24481H130.781L132.987 8.40828L135.194 5.24481H139.82L135.307 11.7348ZM56.8431 23.1136L55.4778 24.8384H55.3008L53.9804 23.1012V26.2016H52.9943V21.763H54.1254L55.4148 23.4688L56.7103 21.763H57.8288V26.2016H56.8431V23.1136ZM62.7132 24.5591L63.4774 22.7587L64.236 24.5591H62.7132ZM62.34 25.4344H64.6087L64.931 26.1956H65.9991L64.0148 21.7564H62.9406L60.9563 26.1956H62.0177L62.34 25.4344ZM72.7786 21.7815L70.9837 23.9128L72.9367 26.1384V26.1955H71.7484L70.1115 24.2997V26.1955H69.1257V21.7562H70.1115V23.5895L71.5843 21.7562H72.7786V21.7815ZM76.0379 26.1955H79.4064V25.2824H77.0049V24.3883H79.1853V23.5194H77.0049V22.6635H79.3182V21.7565H76.0379V26.1955ZM86.9975 21.7565H87.977V26.1955H86.9975V21.7565ZM91.2345 22.6382H92.5809V26.1955H93.5602V22.6382H94.9064V21.7565H91.2345V22.6382ZM104.766 22.8282C104.519 22.568 104.089 22.4544 103.742 22.4544C103.306 22.4544 102.952 22.6382 102.952 22.9425C102.952 23.3483 103.337 23.424 103.906 23.475C104.778 23.5514 105.606 23.887 105.606 24.9146C105.606 25.9039 104.696 26.335 103.742 26.3412C102.977 26.3479 102.181 26.0498 101.808 25.4282L102.396 24.8131C102.737 25.2504 103.299 25.4411 103.748 25.4411C104.272 25.4411 104.633 25.2313 104.633 24.9146C104.639 24.5401 104.342 24.3692 103.742 24.3188C102.807 24.2295 101.973 23.9954 101.985 22.9487C101.992 22.0675 102.826 21.5977 103.736 21.5977C104.418 21.5977 104.93 21.7503 105.385 22.2828L104.766 22.8282ZM109.92 21.7565H108.941V26.1955H109.92V21.7565ZM117.412 23.1136L116.047 24.8384H115.87L114.549 23.1012V26.2016H113.563V21.763H114.694L115.984 23.4688L117.279 21.763H118.397V26.2016H117.412V23.1136ZM124.129 24.0329H123.029V22.6952H124.129C124.597 22.6952 124.837 23.012 124.837 23.3674C124.837 23.7223 124.603 24.0329 124.129 24.0329ZM123.029 26.1956V24.9399H124.129C125.254 24.9275 125.823 24.2357 125.823 23.3483C125.823 22.4924 125.26 21.7565 124.129 21.7565H122.043V26.1956H123.029ZM130.106 21.7565V25.2885H132.317V26.1955H129.12V21.7565H130.106ZM135.57 26.1955H138.939V25.2824H136.537V24.3883H138.717V23.5194H136.537V22.6635H138.85V21.7565H135.57V26.1955Z" fill="#212934"/>
</svg>
